X: 1
T:Peep O' Day -- Reel
M:C|
L:1/8
C:N.GOW
R:reel
B:Ryan's Mammoth Collection
N:258
Z:Contributed by Ray Davies,  ray:davies99.freeserve.co.uk
K:D
uA2"^Segno"|:\
(3.d.d.d (dA) BdAF | AFAg fdBc | (3.d.d.d (dA) BdAF |\
 GFEF GABc |
{e}d^cdA BdAF | ABde fdef | {a}gfge fedf | edce dAFA :|
|:vabaf afdf | gefd edBe | afdf abaf | edef d2(df) |
afdf abaf | gbfa edBd | (3.d.d.d (dA) BdAF | ABde (fd)d2\
"^Segno" :|
